X: 19616
T: Japanese, The
R: hornpipe
M: 4/4
K: Amajor
a2 egf|:(3eee ^de =de c2|(3BcB AB GBFG|EFGA Bcde|fe (3^def eAc=d|
(3eee ^de =de c2|(3BcB AB GB F2|EFGA Bcde|1 (3gfe (3dcB Aagf:|2 (3gfe (3dcB Acea||
|:e'2 e'3 eac'|a'2 b4 eg|(3c'ge (3c'ge (3c'ge (3c'ge|a'2 a4 ea|
e'2 e'3 eac'|a'2 b4 ef|gagf edBG|1 (3ABA GB A2 ea:|2 (3ABA GB Aagf|

